public/assets/technologies/Styled-components.svg

<svg xmlns="http://www.w3.org/2000/svg" viewBox="0 0 500 500"><path d="m354.348 62.047-1.941 11.965c-2.997 22.68-1.911 29.167 6.306 37.582l7.94 7.775-8.221 43.391c-4.912 25.891-10.937 47.585-14.761 54.715-3.282 6.156-7.107 15.211-7.933 20.078-1.371 5.815-6.022 11.66-13.131 16.829-6.283 4.226-18.61 15.546-27.347 24.635-6.98 7.441-11.789 11.998-14.399 13.959l-8.53 7.983c-2.741 5.205-4.292 9.397-4.885 12.579-.594 3.275-.259 5.448.622 7.039.852 1.531 2.327 2.6 4.341 3.276 2.405.642 4.861.886 7.289.704 5.533-.46 11.012-1.625 16.336-3.427a73.534 73.534 0 0 0 4.472-1.621c1.915-2.789 6.333-8.052 14.163-17.2 20.786-24.273 28.719-37.554 20.525-33.967-3.022 1.281-1.655-1.959 3.54-8.447 10.962-12.641 17.241-31.737 30.371-91.626 10.393-47.28 10.393-47.953 18.042-47.953 3.594 0 13.754.735 13.754.735V62.047h-46.553Zm34.546 96.858c-1.654 0-4.393 2.94-6.022 6.181-2.996 5.816.541 9.361 45.673 42.721 26.803 20.107 48.412 37.242 47.869 38.562-.542.946-22.435 17.808-48.669 37.239-47.614 34.95-47.869 35.287-43.504 42.419 5.48 8.413 0 11.322 61.803-34.338l44.872-33.998V232.11l-50.069-36.607c-27.062-20.103-50.582-36.262-51.953-36.598Zm-281.39 3.582c-1.37 0-24.893 16.526-51.954 36.263L4.94 235.349v25.584l50.325 37.245c27.915 20.38 51.437 37.242 52.525 37.242 1.084 0 3.282-2.937 5.478-6.489 3.285-6.151.516-8.751-45.698-43.393-44.019-32.714-48.671-37.244-44.279-40.797 2.742-2.26 23.524-17.5 45.959-33.997 51.153-37.242 48.412-34.67 44.301-42.443-1.628-3.215-4.392-6.122-6.022-5.814h-.025Zm154.771.702c-7.546-.063-23.778 13.56-72.372 60.53-2.093 5.909-2.277 9.976-1.317 12.609.619 1.808 1.756 3.063 3.33 3.98 1.553.918 3.57 1.468 5.791 1.682 4.42.461 9.643-.369 13.856-1.348l2.843-.765c.982-1.558 2.248-2.815 3.722-3.611 2.999-1.957 15.586-15.545 28.176-30.11 22.15-26.564 27.349-38.56 18.325-42.446a4.716 4.716 0 0 0-2.326-.521h-.028Zm56.765 18.456c-6.644.212-18.612 9.331-39.108 28.7-10.289 9.886-16.802 15.211-20.293 16.313l-13.543 12.669c-5.091 11.015-5.843 17.843-4.497 21.606.697 1.871 1.962 3.333 3.566 4.1a14.782 14.782 0 0 0 6.205 1.379 49.19 49.19 0 0 0 14.989-2.603 89.62 89.62 0 0 0 7.522-2.815l.751-.366 1.37-.89c2.583-3.917 8.528-11.352 15.976-19.92 23.519-26.901 35.538-45.964 33.083-53.095-1.111-3.457-3.024-5.204-6.021-5.078Zm-62.657 33.05c-1.91.245-6.201 4.162-13.932 12.176-11.169 11.692-23.34 18.425-27.552 15.424-.959.244-1.942.487-2.95.734-4.291 1.01-9.64 1.839-14.42 1.38a16.78 16.78 0 0 1-6.515-1.928c-1.914-1.072-3.464-2.908-4.343-5.205-.955-2.751-.955-6.18.128-10.556L170 243.061l-38.024 37.242v60.381l124.587-116.2a15.149 15.149 0 0 1 .413-3.763c.96-4.101.907-6.183-.593-5.996v-.03Zm53.609 19.552c-1.885 0-5.04 3.155-10.081 9.489-6.85 8.66-17.63 17.044-23.34 18.758l-.877.552c-.933.427-1.888.856-2.844 1.283a89.448 89.448 0 0 1-5.894 2.083c-4.653 1.499-10.442 2.876-15.612 2.722a17.104 17.104 0 0 1-7.108-1.651c-2.122-1.042-3.825-3.029-4.758-5.509-1.502-4.252-.902-10.224 2.377-18.7L131.949 345.763v36.876h48.287l102.406-95.234c2.663-3.489 6.671-8.261 12.074-14.231 14.474-15.883 17.757-21.358 17.757-29.469 0-6.303-.596-9.487-2.481-9.487v.029Zm24.375 59.676-8.762 10.345c-4.913 5.507-13.673 12.301-19.672 15.209l-1.188.607-.079.158-.257.303c-.232.213-.338.213-.518.337a76.493 76.493 0 0 1-7.288 2.848c-5.453 1.864-11.089 3.063-16.803 3.52a23.758 23.758 0 0 1-8.01-.827c-2.274-.611-4.264-2.173-5.637-4.408-1.242-2.262-1.604-5.295-.903-9.026a39.503 39.503 0 0 1 2.456-7.653l-82.638 77.303h109.904l13.135-17.811c18.04-24.941 26.26-42.72 26.26-57.96v-12.945Z" style="fill:#9c8aff"/></svg>

<?xml version="1.0" encoding="utf-8"?>
<svg viewBox="0 0 500 500" xmlns="http://www.w3.org/2000/svg">
  <path d="M 354.348 62.047 L 352.407 74.012 C 349.41 96.692 350.496 103.179 358.713 111.594 L 366.653 119.369 L 358.432 162.76 C 353.52 188.651 347.495 210.345 343.671 217.475 C 340.389 223.631 336.564 232.686 335.738 237.553 C 334.367 243.368 329.716 249.213 322.607 254.382 C 316.324 258.608 303.997 269.928 295.26 279.017 C 288.28 286.458 283.471 291.015 280.861 292.976 L 272.331 300.959 C 269.59 306.164 268.039 310.356 267.446 313.538 C 266.852 316.813 267.187 318.986 268.068 320.577 C 268.92 322.108 270.395 323.177 272.409 323.853 C 274.814 324.495 277.27 324.739 279.698 324.557 C 285.231 324.097 290.71 322.932 296.034 321.13 C 297.845 320.545 299.264 319.996 300.506 319.509 C 302.421 316.72 306.839 311.457 314.669 302.309 C 335.455 278.036 343.388 264.755 335.194 268.342 C 332.172 269.623 333.539 266.383 338.734 259.895 C 349.696 247.254 355.975 228.158 369.105 168.269 C 379.498 120.989 379.498 120.316 387.147 120.316 C 390.741 120.316 400.901 121.051 400.901 121.051 L 400.901 62.047 L 377.586 62.047 L 354.348 62.047 Z M 388.894 158.905 C 387.24 158.905 384.501 161.845 382.872 165.086 C 379.876 170.902 383.413 174.447 428.545 207.807 C 455.348 227.914 476.957 245.049 476.414 246.369 C 475.872 247.315 453.979 264.177 427.745 283.608 C 380.131 318.558 379.876 318.895 384.241 326.027 C 389.721 334.44 384.241 337.349 446.044 291.689 L 490.916 257.691 L 490.916 232.11 L 440.847 195.503 C 413.785 175.4 390.265 159.241 388.894 158.905 Z M 107.504 162.487 C 106.134 162.487 82.611 179.013 55.55 198.75 L 4.94 235.349 L 4.94 260.933 L 55.265 298.178 C 83.18 318.558 106.702 335.42 107.79 335.42 C 108.874 335.42 111.072 332.483 113.268 328.931 C 116.553 322.78 113.784 320.18 67.57 285.538 C 23.551 252.824 18.899 248.294 23.291 244.741 C 26.033 242.481 46.815 227.241 69.25 210.744 C 120.403 173.502 117.662 176.074 113.551 168.301 C 111.923 165.086 109.159 162.179 107.529 162.487 L 107.504 162.487 Z M 262.275 163.189 C 254.729 163.126 238.497 176.749 189.903 223.719 C 187.81 229.628 187.626 233.695 188.586 236.328 C 189.205 238.136 190.342 239.391 191.916 240.308 C 193.469 241.226 195.486 241.776 197.707 241.99 C 202.127 242.451 207.35 241.621 211.563 240.642 L 214.406 239.877 C 215.388 238.319 216.654 237.062 218.128 236.266 C 221.127 234.309 233.714 220.721 246.304 206.156 C 268.454 179.592 273.653 167.596 264.629 163.71 C 263.903 163.339 263.102 163.158 262.303 163.189 L 262.275 163.189 Z M 319.04 181.645 C 312.396 181.857 300.428 190.976 279.932 210.345 C 269.643 220.231 263.13 225.556 259.639 226.658 L 246.096 239.327 C 241.005 250.342 240.253 257.17 241.599 260.933 C 242.296 262.804 243.561 264.266 245.165 265.033 C 247.154 265.948 249.249 266.412 251.37 266.412 C 256.462 266.319 261.5 265.463 266.359 263.809 C 268.92 262.984 271.425 262.036 273.881 260.994 L 274.632 260.628 L 276.002 259.738 C 278.585 255.821 284.53 248.386 291.978 239.818 C 315.497 212.917 327.516 193.854 325.061 186.723 C 323.95 183.266 322.037 181.519 319.04 181.645 Z M 256.383 214.695 C 254.473 214.94 250.182 218.857 242.451 226.871 C 231.282 238.563 219.111 245.296 214.899 242.295 C 213.94 242.539 212.957 242.782 211.949 243.029 C 207.658 244.039 202.309 244.868 197.529 244.409 C 195.28 244.222 193.083 243.581 191.014 242.481 C 189.1 241.409 187.55 239.573 186.671 237.276 C 185.716 234.525 185.716 231.096 186.799 226.72 L 170 243.061 L 131.976 280.303 L 131.976 340.684 L 256.563 224.484 C 256.536 223.203 256.694 221.916 256.976 220.721 C 257.936 216.62 257.883 214.538 256.383 214.725 L 256.383 214.695 Z M 309.992 234.247 C 308.107 234.247 304.952 237.402 299.911 243.736 C 293.061 252.396 282.281 260.78 276.571 262.494 L 275.694 263.046 C 274.761 263.473 273.806 263.902 272.85 264.329 C 271.297 264.943 269.282 265.678 266.956 266.412 C 262.303 267.911 256.514 269.288 251.344 269.134 C 248.912 269.103 246.51 268.555 244.236 267.483 C 242.114 266.441 240.411 264.454 239.478 261.974 C 237.976 257.722 238.576 251.75 241.855 243.274 L 131.949 345.763 L 131.949 382.639 L 180.236 382.639 L 282.642 287.405 C 285.305 283.916 289.313 279.144 294.716 273.174 C 309.19 257.291 312.473 251.816 312.473 243.705 C 312.473 237.402 311.877 234.218 309.992 234.218 L 309.992 234.247 Z M 334.367 293.923 L 325.605 304.268 C 320.692 309.775 311.932 316.569 305.933 319.477 L 304.745 320.084 L 304.666 320.242 L 304.409 320.545 C 304.177 320.758 304.071 320.758 303.891 320.882 C 301.514 321.956 299.084 322.902 296.603 323.73 C 291.15 325.594 285.514 326.793 279.8 327.25 C 277.115 327.433 274.424 327.156 271.79 326.423 C 269.516 325.812 267.526 324.25 266.153 322.015 C 264.911 319.753 264.549 316.72 265.25 312.989 C 265.817 310.325 266.644 307.754 267.706 305.336 L 185.068 382.639 L 294.972 382.639 L 308.107 364.828 C 326.147 339.887 334.367 322.108 334.367 306.868 L 334.367 293.923 Z" style="fill: rgb(156, 138, 255);"/>
</svg>
